X:1
T:RVW2/1/138 Captain Bray
T:RVW2/1/138 Captain Bray
T:(As I Was Riding Over Galway Mountains)
T:Transcribed by Simon Furey and Lewis Jones Mrs. Powell, Herefordshire, July 1909 [7 of 13]
C:Transcribed by Simon Furey and Lewis Jones
C:Mrs. Powell, Herefordshire, July 1909 [7 of 13]
L:1/8
Q:1/4=110
M:4/4
K:G
V:1 treble 
V:1
"^(Editorial suggestion)" G2 | B2 E>F G>FG>A | B>A B>A B<d !fermata!e2 |[M:1/4] G>A | %4
[M:4/4] B>GE>F G>FG>A | B>A B>G A2 !fermata!G2 |[M:1/4] B>d |[M:4/4] e2 g>f e2 B2 | e2 g>f e2 B2 | %9
 e2 e>d e>f g>e | d>ed>B A>GG>A | B>GE>F G4 | B2 B>A B<d e2 | e2 e>d e<g g>e | d>B A>G A2 G2 |] %15

